assets/icons/doc-accent.svg

<svg width="10" height="10" viewBox="0 0 10 10" fill="none" xmlns="http://www.w3.org/2000/svg">
<path fill-rule="evenodd" clip-rule="evenodd" d="M0.9375 0.875C0.9375 0.529822 1.21732 0.25 1.5625 0.25H5.625C5.79076 0.25 5.94973 0.315848 6.06694 0.433058L8.87944 3.24556C8.99665 3.36277 9.0625 3.52174 9.0625 3.6875V9.125C9.0625 9.47018 8.78268 9.75 8.4375 9.75H1.5625C1.21732 9.75 0.9375 9.47018 0.9375 9.125V0.875ZM2.1875 1.5V8.5H7.8125V3.94638L5.36612 1.5H2.1875Z" fill="#5646ED"/>
</svg>

<svg xmlns="http://www.w3.org/2000/svg" width="10" height="10" fill="none" viewBox="0 0 10 10"><path fill="#5646ED" fill-rule="evenodd" d="M.938.875c0-.345.28-.625.625-.625h4.062c.166 0 .325.066.442.183l2.812 2.813a.63.63 0 0 1 .184.442v5.437c0 .345-.28.625-.626.625H1.564a.625.625 0 0 1-.625-.625zm1.25.625v7h5.624V3.946L5.367 1.5z" clip-rule="evenodd"/></svg>
